public/hms-coachmark.svg

<svg xmlns="http://www.w3.org/2000/svg" xmlns:xlink="http://www.w3.org/1999/xlink" width="130" height="18" viewBox="0 0 130 18" fill="none">
<g opacity="0.4">
<path d="M0.880682 13H1.76136V10.3438H3.35227C5.04616 10.3438 5.80966 9.31392 5.80966 8.02841C5.80966 6.7429 5.04616 5.72727 3.33807 5.72727H0.880682V13ZM1.76136 9.5625V6.50852H3.30966C4.49219 6.50852 4.94318 7.15483 4.94318 8.02841C4.94318 8.90199 4.49219 9.5625 3.32386 9.5625H1.76136ZM9.27202 13.1136C10.7493 13.1136 11.7436 11.9915 11.7436 10.3011C11.7436 8.59659 10.7493 7.47443 9.27202 7.47443C7.79474 7.47443 6.80043 8.59659 6.80043 10.3011C6.80043 11.9915 7.79474 13.1136 9.27202 13.1136ZM9.27202 12.3608C8.14986 12.3608 7.63849 11.3949 7.63849 10.3011C7.63849 9.20739 8.14986 8.22727 9.27202 8.22727C10.3942 8.22727 10.9055 9.20739 10.9055 10.3011C10.9055 11.3949 10.3942 12.3608 9.27202 12.3608ZM14.0732 13H14.897L16.0902 8.80966H16.1754L17.3686 13H18.1925L19.8544 7.54545H18.9737L17.7947 11.7074H17.7379L16.5874 7.54545H15.6925L14.5277 11.7216H14.4709L13.2919 7.54545H12.4112L14.0732 13ZM23.0637 13.1136C24.1717 13.1136 24.9814 12.5597 25.237 11.7358L24.4274 11.5085C24.2143 12.0767 23.7207 12.3608 23.0637 12.3608C22.0801 12.3608 21.4018 11.7251 21.3627 10.5568H25.3223V10.2017C25.3223 8.17045 24.1149 7.47443 22.9785 7.47443C21.5012 7.47443 20.5211 8.6392 20.5211 10.3153C20.5211 11.9915 21.487 13.1136 23.0637 13.1136ZM21.3627 9.83239C21.4196 8.98366 22.0197 8.22727 22.9785 8.22727C23.8876 8.22727 24.47 8.90909 24.47 9.83239H21.3627ZM26.5971 13H27.4352V9.5483C27.4352 8.80966 28.0176 8.26989 28.813 8.26989C29.0368 8.26989 29.2676 8.3125 29.3244 8.3267V7.47443C29.2285 7.46733 29.0083 7.46023 28.8841 7.46023C28.2306 7.46023 27.6625 7.82955 27.4636 8.36932H27.4068V7.54545H26.5971V13ZM32.4387 13.1136C33.5467 13.1136 34.3564 12.5597 34.612 11.7358L33.8024 11.5085C33.5893 12.0767 33.0957 12.3608 32.4387 12.3608C31.4551 12.3608 30.7768 11.7251 30.7377 10.5568H34.6973V10.2017C34.6973 8.17045 33.4899 7.47443 32.3535 7.47443C30.8762 7.47443 29.8961 8.6392 29.8961 10.3153C29.8961 11.9915 30.862 13.1136 32.4387 13.1136ZM30.7377 9.83239C30.7946 8.98366 31.3947 8.22727 32.3535 8.22727C33.2626 8.22727 33.845 8.90909 33.845 9.83239H30.7377ZM38.0318 13.1136C39.0829 13.1136 39.438 12.4602 39.6227 12.1619H39.7221V13H40.5318V5.72727H39.6937V8.41193H39.6227C39.438 8.12784 39.1113 7.47443 38.046 7.47443C36.6681 7.47443 35.7164 8.56818 35.7164 10.2869C35.7164 12.0199 36.6681 13.1136 38.0318 13.1136ZM38.1454 12.3608C37.0943 12.3608 36.5545 11.4375 36.5545 10.2727C36.5545 9.12216 37.0801 8.22727 38.1454 8.22727C39.1681 8.22727 39.7079 9.05114 39.7079 10.2727C39.7079 11.5085 39.1539 12.3608 38.1454 12.3608ZM45.1092 13H45.9189V12.1619H46.0183C46.2029 12.4602 46.5581 13.1136 47.6092 13.1136C48.9728 13.1136 49.9245 12.0199 49.9245 10.2869C49.9245 8.56818 48.9728 7.47443 47.595 7.47443C46.5297 7.47443 46.2029 8.12784 46.0183 8.41193H45.9473V5.72727H45.1092V13ZM45.9331 10.2727C45.9331 9.05114 46.4728 8.22727 47.4956 8.22727C48.5609 8.22727 49.0865 9.12216 49.0865 10.2727C49.0865 11.4375 48.5467 12.3608 47.4956 12.3608C46.487 12.3608 45.9331 11.5085 45.9331 10.2727ZM51.551 15.0455C52.3074 15.0455 52.84 14.6442 53.1561 13.7955L55.4785 7.55966L54.5623 7.54545L53.0566 11.892H52.9998L51.4941 7.54545H50.585L52.6021 13.0284L52.4458 13.4545C52.1404 14.2855 51.764 14.3636 51.1532 14.2074L50.9402 14.946C51.0254 14.9886 51.2669 15.0455 51.551 15.0455Z" fill="white"/>
<rect x="69.5808" y="1.41504" width="7.66842" height="15.1701" fill="url(#pattern0)"/>
<path fill-rule="evenodd" clip-rule="evenodd" d="M74.3719 9.38029C74.6127 9.61737 74.9187 9.88974 75.2731 10.1405C75.6148 10.5649 75.9371 11.0608 76.1511 11.6098C76.3094 12.0209 76.4094 12.4638 76.4094 12.9279C76.4094 14.5033 75.0647 15.7869 73.4143 15.7869C72.4137 15.7869 71.5254 15.316 70.981 14.5935C71.3051 14.5432 71.6221 14.4421 71.918 14.2901C72.2949 14.6679 72.8265 14.9038 73.4143 14.9038C74.5562 14.9038 75.4815 14.0179 75.4815 12.9306C75.4815 12.4426 75.3231 11.692 74.609 10.7744C74.5229 10.663 74.4284 10.5516 74.3256 10.4349C74.1471 10.234 73.9686 10.057 73.8063 9.90732C73.8102 9.71071 73.8215 9.5392 73.8339 9.4038C73.9788 9.39278 74.1621 9.38289 74.3719 9.38029ZM76.2862 4.25685C76.3664 4.51463 76.4094 4.78747 76.4094 5.06968C76.4094 5.53115 76.3122 5.97406 76.1511 6.38779C75.9371 6.93943 75.6148 7.43538 75.2731 7.85972C74.9154 8.11286 74.606 8.38796 74.364 8.62657C74.1574 8.62283 73.9769 8.61207 73.8339 8.60021C73.8219 8.46319 73.8117 8.28909 73.8092 8.08923C74.0583 7.85885 74.3451 7.56567 74.609 7.22586C75.0786 6.62117 75.4815 5.87062 75.4815 5.06968C75.4815 4.86249 75.4478 4.66261 75.3853 4.47479C75.6676 4.33605 75.9763 4.26343 76.2862 4.25685ZM75.8501 3.4075C75.3064 2.68355 74.4177 2.21069 73.4143 2.21069C71.7612 2.21069 70.4192 3.49432 70.4192 5.06968C70.4192 5.5338 70.5192 5.97671 70.6776 6.38779C70.8915 6.93678 71.2138 7.43538 71.5556 7.85972C71.9119 8.11189 72.2192 8.38585 72.4607 8.62383C72.6696 8.62136 72.8516 8.61171 72.9949 8.60021C73.0073 8.46305 73.0187 8.28978 73.0225 8.0914C72.7734 7.8607 72.4861 7.56673 72.2196 7.22586C71.7473 6.62117 71.3472 5.87062 71.3472 5.06968C71.3472 3.98231 72.2752 3.0965 73.4143 3.0965C74.0026 3.0965 74.5345 3.3327 74.9114 3.71089C75.2078 3.55873 75.5255 3.45762 75.8501 3.4075ZM70.5441 13.7462C70.4628 13.4869 70.4192 13.2122 70.4192 12.9279C70.4192 12.4665 70.5164 12.0235 70.6776 11.6098C70.8915 11.0608 71.2138 10.5649 71.5556 10.1405C71.6723 10.0583 71.7889 9.96815 71.9112 9.87002C72.1203 9.70074 72.3046 9.53146 72.4608 9.37737C72.6684 9.38105 72.8494 9.39187 72.9921 9.4038C73.0036 9.54122 73.0139 9.7149 73.0167 9.91363C72.7681 10.1436 72.4826 10.4359 72.2196 10.7744C71.75 11.3791 71.3472 12.1296 71.3472 12.9306C71.3472 13.1389 71.3812 13.3398 71.4443 13.5286C71.1623 13.6671 70.8538 13.7396 70.5441 13.7462Z" fill="white"/>
<path fill-rule="evenodd" clip-rule="evenodd" d="M77.2858 9.00816C77.7052 9.19114 78.1024 9.43774 78.4441 9.7665C79.6082 10.8857 79.6054 12.6997 78.4385 13.8136C77.7328 14.4846 76.7631 14.7498 75.8462 14.6093C76.0407 14.3547 76.1908 14.0682 76.288 13.7606C76.8298 13.7712 77.3744 13.5803 77.7856 13.1877C78.5941 12.4213 78.5969 11.1695 77.7911 10.3977C77.1993 9.8275 76.3575 9.56759 75.5767 9.4562C75.1405 9.39255 74.721 9.37664 74.3765 9.38194C74.1681 9.38459 73.9847 9.3952 73.8402 9.40581C73.8291 9.54107 73.818 9.71346 73.8152 9.90971C73.8097 10.2412 73.8236 10.6417 73.8875 11.0634C74.0014 11.8086 74.2709 12.6122 74.8627 13.1798C75.021 13.331 75.1989 13.4529 75.3878 13.5458C75.2906 13.8322 75.1239 14.0921 74.9071 14.3043C74.6543 14.1743 74.4181 14.0072 74.2042 13.803C73.8597 13.4768 73.6041 13.0949 73.4123 12.6944C73.4111 12.6919 73.4099 12.6894 73.4087 12.6869C73.4079 12.6887 73.407 12.6906 73.4061 12.6924C73.2144 13.0929 72.956 13.4722 72.6114 13.7984C71.4389 14.9123 69.5385 14.907 68.3744 13.7904C67.2102 12.6739 67.213 10.8598 68.3855 9.74859C68.7272 9.41973 69.1273 9.17573 69.5468 8.99273C69.5481 8.99217 69.5495 8.99161 69.5508 8.99105C69.1321 8.80816 68.7356 8.56182 68.3945 8.23357C67.2276 7.11703 67.2332 5.30298 68.4029 4.18909C69.1086 3.5181 70.0782 3.25289 70.9951 3.39345C70.8006 3.64806 70.6506 3.93449 70.5534 4.24213C70.0116 4.23152 69.467 4.42248 69.0558 4.81499C68.2473 5.58145 68.2445 6.83325 69.0502 7.60502C69.4087 7.95245 70.0782 8.37679 71.2619 8.54652C71.4036 8.56774 71.5536 8.58365 71.712 8.59691C71.9842 8.61813 72.2399 8.62344 72.4649 8.62078C72.6717 8.61815 72.8512 8.60768 72.9951 8.59715C73.0283 8.23075 73.0529 7.60911 72.9504 6.93999C72.951 6.93586 72.9515 6.93173 72.9521 6.92759C72.8372 6.18566 72.5674 5.38752 71.9787 4.82295C71.8203 4.67177 71.6425 4.54978 71.4536 4.45695C71.5508 4.17052 71.7175 3.91062 71.9342 3.69845C72.1871 3.82575 72.4232 3.99283 72.6372 4.19705C72.9803 4.52193 73.2352 4.90205 73.4267 5.30074C73.618 4.90329 73.8752 4.52698 74.2174 4.203C75.3898 3.08911 77.2903 3.09441 78.4544 4.21096C79.6214 5.3275 79.6158 7.14155 78.4461 8.25279C78.1047 8.58136 77.705 8.82522 77.2858 9.00816ZM75.5773 8.55721C76.3569 8.44814 77.1969 8.1908 77.7904 7.62689C78.5989 6.85778 78.6017 5.60597 77.796 4.83686C76.993 4.06509 75.6816 4.06244 74.8731 4.83155C74.5116 5.17135 74.0706 5.80414 73.8904 6.91962C73.8913 6.9262 73.8922 6.93277 73.893 6.93934C73.8708 7.0746 73.8541 7.21781 73.8402 7.36898C73.818 7.62889 73.8124 7.87289 73.8152 8.08771C73.818 8.28927 73.8291 8.46166 73.8402 8.59957C73.8973 8.60491 73.9607 8.60982 74.0297 8.61396C74.0782 8.61676 74.1293 8.61928 74.1827 8.62138C74.2424 8.62363 74.3053 8.62525 74.3709 8.62609C74.7154 8.63139 75.1377 8.61813 75.5767 8.55713C75.5769 8.55716 75.5771 8.55718 75.5773 8.55721ZM69.0328 13.1672C69.8358 13.9363 71.1472 13.9416 71.9557 13.1725C72.5503 12.6076 72.8254 11.804 72.9393 11.0614C73.0449 10.3931 73.0226 9.76981 72.9921 9.40381C72.6114 9.37199 71.9585 9.34812 71.2556 9.44625C70.4748 9.55499 69.633 9.81224 69.0384 10.3771C68.2299 11.1436 68.2271 12.3954 69.0328 13.1672Z" fill="white"/>
<path d="M67.8716 7.57061C67.7132 7.28683 67.6048 6.98449 67.5548 6.67419C66.7963 7.19666 66.3018 8.04268 66.3018 9.0001C66.3018 9.95221 66.7908 10.7956 67.5409 11.3154C67.5937 11.0051 67.6993 10.7001 67.8604 10.419C67.4715 10.0609 67.2297 9.55704 67.2297 9.00275C67.2297 8.43785 67.477 7.93129 67.8716 7.57061ZM79.2881 6.6848C79.2353 6.9951 79.1297 7.30009 78.9685 7.58387C79.3575 7.9419 79.5992 8.44581 79.5992 9.0001C79.5992 9.56235 79.352 10.0689 78.9574 10.4296C79.1158 10.7107 79.2242 11.0157 79.2742 11.326C80.0327 10.8062 80.5272 9.95751 80.5272 9.00275C80.5272 8.04799 80.0382 7.20461 79.2881 6.6848ZM77.5321 7.02692C77.7572 7.02692 77.9711 7.0614 78.1739 7.12505C78.3184 6.85453 78.3934 6.56015 78.399 6.26311C78.1239 6.18355 77.835 6.14111 77.5321 6.14111C75.9567 6.14111 74.6092 7.13831 73.809 7.89947C73.6562 8.04534 73.5229 8.18059 73.4145 8.29994C73.3061 8.18059 73.1728 8.04534 73.0227 7.90212C72.2253 7.14096 70.875 6.14111 69.2969 6.14111C68.9996 6.14111 68.7134 6.18355 68.4439 6.26046C68.4495 6.5575 68.5273 6.85188 68.6717 7.11975C68.869 7.05875 69.0802 7.02692 69.2969 7.02692C70.6083 7.02692 71.7891 7.96312 72.4587 8.6235C72.6032 8.76671 72.7255 8.89667 72.8199 9.00275C72.7282 9.10618 72.6088 9.23614 72.4643 9.3767C72.3087 9.53052 72.1225 9.70291 71.9114 9.87265C70.7889 10.785 69.8692 10.9759 69.2969 10.9759C69.0718 10.9759 68.8579 10.9414 68.6551 10.8778C68.5106 11.1483 68.4356 11.4427 68.43 11.7397C68.7051 11.8193 68.994 11.8617 69.2969 11.8617C70.8722 11.8617 72.2198 10.8645 73.0172 10.106C73.17 9.96017 73.3034 9.82226 73.4145 9.70291C73.5229 9.82226 73.6562 9.95751 73.8063 10.1007C74.6037 10.8619 75.954 11.8617 77.5321 11.8617C77.8294 11.8617 78.1156 11.8193 78.3851 11.7424C78.3795 11.4454 78.3017 11.151 78.1573 10.8831C77.96 10.9441 77.7488 10.9759 77.5321 10.9759C76.2235 10.9759 75.0426 10.0424 74.3703 9.382C74.2258 9.23879 74.1035 9.10884 74.0091 9.00275C74.1008 8.89932 74.223 8.76936 74.3675 8.62615C75.0371 7.96577 76.2207 7.02692 77.5321 7.02692Z" fill="white"/>
<path d="M72.8199 9.00024C73.0172 9.23363 73.2144 9.46702 73.4145 9.7004C73.3589 9.7614 73.3006 9.8224 73.2394 9.8834C73.1366 9.98949 73.0311 10.0929 72.931 10.191C72.7365 9.95766 72.5448 9.72162 72.3503 9.48823C72.4587 9.3848 72.5671 9.27607 72.6782 9.15937C72.7282 9.10368 72.7754 9.05329 72.8199 9.00024Z" fill="white"/>
<path d="M74.009 9.00012C73.8117 8.76673 73.6117 8.53335 73.4144 8.29996C73.4839 8.22305 73.5589 8.14614 73.6395 8.06657C73.7228 7.98436 73.8034 7.90479 73.8868 7.82788C74.1007 8.0427 74.3119 8.25753 74.5258 8.47235C74.4035 8.58639 74.2785 8.71104 74.1535 8.84365C74.1035 8.89669 74.0562 8.94973 74.009 9.00012Z" fill="white"/>
<path opacity="0.5" d="M69.5748 7.04025C69.4831 7.03229 69.3914 7.02699 69.2969 7.02699C69.0802 7.02699 68.8691 7.05881 68.6718 7.11981C68.5273 6.8493 68.4495 6.55756 68.444 6.26053C68.6579 6.19953 68.883 6.15974 69.1163 6.14648L69.5748 7.04025Z" fill="white"/>
<path opacity="0.5" d="M67.8714 7.57049C67.6825 7.74023 67.5297 7.94444 67.4185 8.17252L66.9379 7.23632C67.1129 7.0215 67.3213 6.8332 67.5519 6.67407C67.6075 6.98437 67.713 7.28937 67.8714 7.57049Z" fill="white"/>
<path opacity="0.5" d="M77.2653 7.04025C77.3486 7.02964 77.4431 7.02434 77.5431 7.02699C77.7959 7.02964 78.0099 7.07473 78.1738 7.12512C78.2321 7.01638 78.296 6.87317 78.3405 6.69547C78.3822 6.52839 78.3961 6.37987 78.3961 6.26583C78.2988 6.23666 78.1905 6.20748 78.0654 6.18627C77.9404 6.16505 77.8237 6.15179 77.7237 6.14648L77.2653 7.04025Z" fill="white"/>
<path opacity="0.5" d="M78.9686 7.58123C79.0436 7.65019 79.1298 7.74036 79.2131 7.8544C79.302 7.97375 79.3632 8.08514 79.4104 8.18061C79.5715 7.87031 79.7355 7.56002 79.8966 7.24706C79.8216 7.15424 79.7299 7.05611 79.6216 6.95268C79.5049 6.84394 79.3909 6.75642 79.2881 6.68481C79.2659 6.81742 79.2298 6.9739 79.1687 7.14363C79.1075 7.31337 79.0381 7.46189 78.9686 7.58123Z" fill="white"/>
<path opacity="0.5" d="M69.547 10.9601C69.4637 10.9707 69.372 10.976 69.2692 10.9734C69.0219 10.9707 68.8135 10.9256 68.6579 10.8752C68.6023 10.9787 68.5384 11.1166 68.494 11.2863C68.4468 11.4614 68.4329 11.6178 68.4329 11.7372C68.5273 11.7637 68.6357 11.7902 68.7552 11.8114C68.8774 11.8327 68.9885 11.8459 69.0886 11.8539L69.547 10.9601Z" fill="white"/>
<path opacity="0.5" d="M67.8604 10.4191C67.7854 10.3475 67.6993 10.2573 67.6131 10.1433C67.5215 10.0213 67.4576 9.90721 67.4131 9.80908C67.252 10.1194 67.088 10.4323 66.9269 10.7426C66.9991 10.8328 67.088 10.9336 67.1964 11.037C67.3186 11.1511 67.4381 11.2439 67.5437 11.3128C67.5659 11.1749 67.6048 11.0105 67.6715 10.8302C67.7271 10.6684 67.7965 10.5305 67.8604 10.4191Z" fill="white"/>
<path opacity="0.5" d="M77.2653 10.96C77.3486 10.9706 77.4431 10.9759 77.5431 10.9732C77.7876 10.9706 77.996 10.9281 78.1571 10.8831C78.2127 10.9865 78.2766 11.1244 78.3211 11.2941C78.3683 11.4692 78.3794 11.623 78.3794 11.7397C78.2877 11.7662 78.1821 11.7927 78.0654 11.814C77.9404 11.8352 77.8237 11.8484 77.7237 11.8537L77.2653 10.96Z" fill="white"/>
<path opacity="0.5" d="M78.9575 10.4298C79.0381 10.3582 79.1298 10.2627 79.2187 10.1433C79.302 10.032 79.3632 9.92587 79.4076 9.83569C79.5688 10.1433 79.7327 10.4536 79.8938 10.7613C79.8188 10.8515 79.7271 10.9522 79.6188 11.0557C79.4993 11.1671 79.3826 11.2572 79.277 11.3288C79.2548 11.1989 79.2215 11.0477 79.1631 10.8833C79.0992 10.7029 79.027 10.5518 78.9575 10.4298Z" fill="white"/>
<path d="M86.4193 12.5767H88.0158V7.52626L88.0422 6.51869L88.0158 6.4935L87.1054 7.03507L86.0762 7.62702L85.8915 6.19123L88.7678 4.37761H89.8366V12.5767H91.3935V13.8361H86.4193V12.5767Z" fill="white"/>
<path d="M100.003 9.13837C100.003 9.9948 99.9329 10.7295 99.7921 11.3424C99.6514 11.9554 99.4315 12.4591 99.1324 12.8538C98.8421 13.24 98.4683 13.5255 98.0109 13.7102C97.5623 13.8865 97.0213 13.9747 96.388 13.9747C95.7459 13.9747 95.1961 13.8865 94.7387 13.7102C94.2901 13.5255 93.9206 13.24 93.6304 12.8538C93.3401 12.4591 93.1246 11.9554 92.9838 11.3424C92.8519 10.7295 92.7859 9.9948 92.7859 9.13837C92.7859 8.24835 92.8519 7.49687 92.9838 6.88394C93.1246 6.2626 93.3401 5.75882 93.6304 5.37258C93.9206 4.98635 94.2945 4.70927 94.7519 4.54134C95.2093 4.36502 95.7591 4.27686 96.4012 4.27686C97.0345 4.27686 97.5755 4.36502 98.0241 4.54134C98.4815 4.70927 98.8553 4.98635 99.1456 5.37258C99.4359 5.75882 99.6514 6.2626 99.7921 6.88394C99.9329 7.49687 100.003 8.24835 100.003 9.13837ZM98.2616 9.11318C98.2616 8.42467 98.222 7.86631 98.1428 7.4381C98.0725 7.00149 97.9625 6.66563 97.813 6.43053C97.6634 6.18704 97.4699 6.02331 97.2324 5.93934C96.9949 5.84698 96.7178 5.8008 96.4012 5.8008C96.0757 5.8008 95.7942 5.84698 95.5567 5.93934C95.3192 6.02331 95.1213 6.18704 94.963 6.43053C94.8135 6.67403 94.6991 7.01408 94.6199 7.45069C94.5496 7.87891 94.5144 8.43727 94.5144 9.12577C94.5144 9.83107 94.5496 10.402 94.6199 10.8386C94.6991 11.2752 94.8135 11.6153 94.963 11.8588C95.1213 12.1023 95.3192 12.266 95.5567 12.35C95.7942 12.434 96.0757 12.4759 96.4012 12.4759C96.7178 12.4759 96.9949 12.434 97.2324 12.35C97.4699 12.2576 97.6634 12.0897 97.813 11.8462C97.9625 11.6027 98.0725 11.2627 98.1428 10.826C98.222 10.381 98.2616 9.81008 98.2616 9.11318Z" fill="white"/>
<path d="M107.98 9.13837C107.98 9.9948 107.909 10.7295 107.769 11.3424C107.628 11.9554 107.408 12.4591 107.109 12.8538C106.819 13.24 106.445 13.5255 105.987 13.7102C105.539 13.8865 104.998 13.9747 104.364 13.9747C103.722 13.9747 103.172 13.8865 102.715 13.7102C102.266 13.5255 101.897 13.24 101.607 12.8538C101.316 12.4591 101.101 11.9554 100.96 11.3424C100.828 10.7295 100.762 9.9948 100.762 9.13837C100.762 8.24835 100.828 7.49687 100.96 6.88394C101.101 6.2626 101.316 5.75882 101.607 5.37258C101.897 4.98635 102.271 4.70927 102.728 4.54134C103.186 4.36502 103.735 4.27686 104.378 4.27686C105.011 4.27686 105.552 4.36502 106 4.54134C106.458 4.70927 106.832 4.98635 107.122 5.37258C107.412 5.75882 107.628 6.2626 107.769 6.88394C107.909 7.49687 107.98 8.24835 107.98 9.13837ZM106.238 9.11318C106.238 8.42467 106.198 7.86631 106.119 7.4381C106.049 7.00149 105.939 6.66563 105.789 6.43053C105.64 6.18704 105.446 6.02331 105.209 5.93934C104.971 5.84698 104.694 5.8008 104.378 5.8008C104.052 5.8008 103.771 5.84698 103.533 5.93934C103.296 6.02331 103.098 6.18704 102.939 6.43053C102.79 6.67403 102.675 7.01408 102.596 7.45069C102.526 7.87891 102.491 8.43727 102.491 9.12577C102.491 9.83107 102.526 10.402 102.596 10.8386C102.675 11.2752 102.79 11.6153 102.939 11.8588C103.098 12.1023 103.296 12.266 103.533 12.35C103.771 12.434 104.052 12.4759 104.378 12.4759C104.694 12.4759 104.971 12.434 105.209 12.35C105.446 12.2576 105.64 12.0897 105.789 11.8462C105.939 11.6027 106.049 11.2627 106.119 10.826C106.198 10.381 106.238 9.81008 106.238 9.11318Z" fill="white"/>
<path d="M117.896 13.8361V8.91166C117.896 8.45826 117.772 8.1266 117.526 7.91669C117.28 7.69839 116.937 7.58923 116.497 7.58923C116.11 7.58923 115.789 7.68999 115.534 7.8915C115.279 8.09302 115.151 8.40368 115.151 8.8235V13.8361H113.475V8.8235C113.475 8.3701 113.348 8.05103 113.093 7.86631C112.847 7.6732 112.525 7.57664 112.13 7.57664C111.848 7.57664 111.575 7.63961 111.312 7.76556C111.057 7.8915 110.859 8.05943 110.718 8.26934V13.8361H109.042V6.29199L110.243 6.21642L110.533 6.9721C110.806 6.70341 111.118 6.4977 111.47 6.35496C111.822 6.20383 112.191 6.12826 112.578 6.12826C113.59 6.12826 114.298 6.4893 114.703 7.21139C114.958 6.83356 115.274 6.56067 115.653 6.39275C116.04 6.21642 116.471 6.12826 116.946 6.12826C117.333 6.12826 117.684 6.18703 118.001 6.30458C118.327 6.41374 118.604 6.58586 118.832 6.82096C119.07 7.04767 119.25 7.33314 119.373 7.6774C119.505 8.02165 119.571 8.42467 119.571 8.88648V13.8361H117.896Z" fill="white"/>
<path d="M125.926 11.5313C125.926 11.9008 125.868 12.2366 125.754 12.5389C125.64 12.8412 125.464 13.1015 125.226 13.3198C124.989 13.5297 124.685 13.6934 124.316 13.811C123.946 13.9285 123.507 13.9873 122.996 13.9873C122.521 13.9873 122.073 13.9411 121.651 13.8487C121.237 13.7564 120.863 13.6136 120.529 13.4205L120.727 12.0603C121.035 12.2534 121.4 12.4004 121.822 12.5011C122.244 12.6019 122.636 12.6523 122.996 12.6523C123.48 12.6523 123.828 12.5599 124.039 12.3752C124.259 12.1905 124.369 11.9596 124.369 11.6825C124.369 11.439 124.272 11.2501 124.078 11.1157C123.894 10.9814 123.656 10.8638 123.366 10.7631C123.076 10.6623 122.763 10.5658 122.429 10.4734C122.104 10.3726 121.796 10.2425 121.505 10.083C121.215 9.91503 120.973 9.69673 120.78 9.42804C120.595 9.15936 120.503 8.80671 120.503 8.3701C120.503 7.70678 120.745 7.16941 121.228 6.75799C121.712 6.33817 122.438 6.12826 123.405 6.12826C124.197 6.12826 124.932 6.271 125.609 6.55648L125.464 7.8915C125.129 7.75716 124.773 7.6606 124.395 7.60183C124.026 7.53466 123.687 7.50107 123.379 7.50107C122.983 7.50107 122.671 7.57244 122.442 7.71518C122.222 7.85792 122.112 8.05523 122.112 8.30712C122.112 8.53383 122.205 8.71015 122.389 8.8361C122.583 8.95365 122.82 9.0586 123.102 9.15096C123.383 9.24332 123.687 9.33988 124.012 9.44064C124.347 9.533 124.654 9.66314 124.936 9.83107C125.217 9.9906 125.451 10.2047 125.635 10.4734C125.829 10.7421 125.926 11.0947 125.926 11.5313Z" fill="white"/>
</g>
<defs>
<pattern id="pattern0" patternContentUnits="objectBoundingBox" width="1" height="1">
<use xlink:href="#image0_2950_15276"/>
</pattern>
<image id="image0_2950_15276" xlink:href="data:image/png;base64,iVBORw0KGgoAAAANSUhEUgAAARQAAAI8CAYAAAAwZ1S/AAAACXBIWXMAAAsSAAALEgHS3X78AAAA"/>
</defs>
</svg>

<svg xmlns="http://www.w3.org/2000/svg" width="120" height="10" viewBox="0 0 120 10">
  <defs>
    <style>
      .cls-1 {
        opacity: 0.4;
      }

      .cls-2, .cls-3 {
        fill: #fff;
      }

      .cls-3 {
        font-size: 8px;
        font-family: PalatinoLinotype-Roman, Palatino Linotype;
      }
    </style>
  </defs>
  <g id="hms-coachmark" class="cls-1" transform="translate(-0.881 -2.575)">
    <path id="Pfad_1" data-name="Pfad 1" class="cls-2" d="M.881,13h.881V10.344H3.352A2.2,2.2,0,0,0,5.81,8.028a2.193,2.193,0,0,0-2.472-2.3H.881Zm.881-3.437V6.509H3.31c1.183,0,1.634.646,1.634,1.52A1.418,1.418,0,0,1,3.324,9.563Zm7.511,3.551A2.512,2.512,0,0,0,11.744,10.3c0-1.7-.994-2.827-2.472-2.827S6.8,8.6,6.8,10.3A2.512,2.512,0,0,0,9.272,13.114Zm0-.753c-1.122,0-1.634-.966-1.634-2.06S8.15,8.227,9.272,8.227s1.633.98,1.633,2.074S10.394,12.361,9.272,12.361Zm4.8.639H14.9L16.09,8.81h.085L17.369,13h.824l1.662-5.455h-.881l-1.179,4.162h-.057l-1.15-4.162h-.895l-1.165,4.176h-.057L13.292,7.545h-.881Zm8.99.114a2.122,2.122,0,0,0,2.173-1.378l-.81-.227a1.335,1.335,0,0,1-1.364.852,1.652,1.652,0,0,1-1.7-1.8h3.96V10.2c0-2.031-1.207-2.727-2.344-2.727-1.477,0-2.457,1.165-2.457,2.841A2.505,2.505,0,0,0,23.064,13.114Zm-1.7-3.281a1.629,1.629,0,0,1,1.616-1.605A1.479,1.479,0,0,1,24.47,9.832ZM26.6,13h.838V9.548A1.29,1.29,0,0,1,28.813,8.27a2.562,2.562,0,0,1,.511.057V7.474c-.1-.007-.316-.014-.44-.014a1.484,1.484,0,0,0-1.42.909h-.057V7.545H26.6Zm5.842.114a2.122,2.122,0,0,0,2.173-1.378l-.81-.227a1.335,1.335,0,0,1-1.364.852,1.652,1.652,0,0,1-1.7-1.8H34.7V10.2c0-2.031-1.207-2.727-2.344-2.727-1.477,0-2.457,1.165-2.457,2.841A2.505,2.505,0,0,0,32.439,13.114Zm-1.7-3.281a1.629,1.629,0,0,1,1.616-1.605,1.479,1.479,0,0,1,1.492,1.605Zm7.294,3.281a1.687,1.687,0,0,0,1.591-.952h.1V13h.81V5.727h-.838V8.412h-.071a1.661,1.661,0,0,0-1.577-.937c-1.378,0-2.33,1.094-2.33,2.812S36.668,13.114,38.032,13.114Zm.114-.753c-1.051,0-1.591-.923-1.591-2.088s.526-2.045,1.591-2.045c1.023,0,1.563.824,1.563,2.045S39.154,12.361,38.145,12.361ZM45.109,13h.81v-.838h.1a1.687,1.687,0,0,0,1.591.952c1.364,0,2.315-1.094,2.315-2.827S48.973,7.474,47.6,7.474a1.661,1.661,0,0,0-1.577.938h-.071V5.727h-.838Zm.824-2.727c0-1.222.54-2.045,1.563-2.045,1.065,0,1.591.895,1.591,2.045s-.54,2.088-1.591,2.088C46.487,12.361,45.933,11.509,45.933,10.273Zm5.618,4.773a1.639,1.639,0,0,0,1.605-1.25L55.479,7.56l-.916-.014-1.506,4.347H53L51.494,7.545h-.909L52.6,13.028l-.156.426c-.305.831-.682.909-1.293.753l-.213.739A1.649,1.649,0,0,0,51.551,15.045Z" transform="translate(0 -2.84)"/>
    <text id="Hallo.TK_Event" data-name="Hallo.TK Event" class="cls-3" transform="translate(65.881 10.575)"><tspan x="0" y="0">Hallo.TK Event</tspan></text>
  </g>
</svg>
